X:26
T:Marguerite [ok]
R:
S:
N:
A:Champagne
G:
O:France
Z:<anamnese@laposte.net>
M:2/4
L:1/4
Q:1/4=135
K:A
AA | A2 | G/A/ B/G/ | AE | cc | c2 | B/c/ d/B/ | cA | ee | f e/d/ | cB | e2 | A/G/ A/d/ |
 c/B/ c/d/ | cB | cA | ee | f e/d/ | cB | e2 | A/G/ A/B/ | c/B/ c/d/ | cB | A2 ||
